X: 4800
T: Boys Of The Lough, The
R: reel
M: 4/4
K: Dmajor
|:AF F2 A3B|defd efdB|AF F2 BFAF|E3D EGFE|
AF F2 A3B|defd efdB|AF F2 BFAF|1 EDEF D2 dB:|2 EDEF D2 de||
|:faag f3e|defd efdB|AF F2 BFAF|EDEF E3g|
faag f3e|defd efdB|AF F2 (3Bcd AF|1 EDEF D2 de:|2 EDEF D2 dB||

